fs/text_description_24_regular.svg

<svg viewBox="0 0 24 24" fill="none" xmlns="http://www.w3.org/2000/svg" height="1em" width="1em">
  <path d="M2.75 17H15.25C15.6642 17 16 17.3358 16 17.75C16 18.1297 15.7178 18.4435 15.3518 18.4932L15.25 18.5H2.75C2.33579 18.5 2 18.1642 2 17.75C2 17.3703 2.28215 17.0565 2.64823 17.0068L2.75 17H15.25H2.75ZM2.75 13H21.25C21.6642 13 22 13.3358 22 13.75C22 14.1297 21.7178 14.4435 21.3518 14.4932L21.25 14.5H2.75C2.33579 14.5 2 14.1642 2 13.75C2 13.3703 2.28215 13.0565 2.64823 13.0068L2.75 13H21.25H2.75ZM2.75 9H21.25C21.6642 9 22 9.33579 22 9.75C22 10.1297 21.7178 10.4435 21.3518 10.4932L21.25 10.5H2.75C2.33579 10.5 2 10.1642 2 9.75C2 9.3703 2.28215 9.05651 2.64823 9.00685L2.75 9H21.25H2.75ZM2.75 5H21.25C21.6642 5 22 5.33579 22 5.75C22 6.1297 21.7178 6.44349 21.3518 6.49315L21.25 6.5H2.75C2.33579 6.5 2 6.16421 2 5.75C2 5.3703 2.28215 5.05651 2.64823 5.00685L2.75 5H21.25H2.75Z" fill="#212121"/>
</svg>

<svg viewBox="0 0 24 24" fill="none" xmlns="http://www.w3.org/2000/svg" height="1em" width="1em">
  <path d="M2.75 17h12.5a.75.75 0 0 1 .102 1.493l-.102.007H2.75a.75.75 0 0 1-.102-1.493L2.75 17h12.5-12.5Zm0-4h18.5a.75.75 0 0 1 .102 1.493l-.102.007H2.75a.75.75 0 0 1-.102-1.493L2.75 13h18.5-18.5Zm0-4h18.5a.75.75 0 0 1 .102 1.493l-.102.007H2.75a.75.75 0 0 1-.102-1.493L2.75 9h18.5-18.5Zm0-4h18.5a.75.75 0 0 1 .102 1.493l-.102.007H2.75a.75.75 0 0 1-.102-1.493L2.75 5h18.5-18.5Z" fill="#212121"/>
</svg>
